X: 4170
T: Blue Remembered Hills
R: jig
M: 6/8
K: Dmajor
B2|e4 B2|f4 a2|f3 f e_e|HB2 z2 BA|G4 fg|
A4 e_e|B6-|HB6|g4 a2|f4 gf|
e2 B4|B4 A2|c4 A2|F4 E2|E6:|
e4 fg|B6|G2 F2 E2|c6|g4 a2|
f4 gf|e4 _e=e|Hf4 B2|c4 B2|F4 c2|
B4 G2|E6|f4 ef|g4 f2|1 e6:|e4||

